X: 10173
T: DUNDAS OF ARNISTON'S REEL
%R: reel
B: W. Hamilton "Universal Tune-Book" Vol. 1 Glasgow 1844 p.17 #3
S: http://imslp.org/wiki/Hamilton's_Universal_Tune-Book_(Various)
Z: 2016 John Chambers <jc:trillian.mit.edu>
M: C|
L: 1/8
K: C
% - - - - - - - - - - - - - - - - - - - - - - - - -
G |\
c2ce dBG_B | AFF2 GECE |\
F2FA GECE | FDCB, C2CG |\
c2ce dBG_B | AFF2 GECE |\
F2FA GcEG | FDCB, C2C |]
f |\
egec Bdg2 | Acf2 Ace2 |\
FAdF EGce | fdcB c2cf |\
egec BdgB | AcfA GceG |\
FAdF EGcE | FDCB, C2C |]
% - - - - - - - - - - - - - - - - - - - - - - - - -

%%sep 1 1 500
%%sep 1 1 500

